X:93
T:Tom Jolley's. ThoH.093
Q:3/8=100
M:6/8
L:1/8
B:Thompson's Compleat Collection of 120 Favourite Hornpipes.
Z:Village Music Project, Simon Wilson 2016
O:England.
K:D
DFD dAd|AFA GEG|FDF dAd|A3F3|
DFD dAd|AFA GEG|FDg fge|d3D3:|
|:Ace aea|fdf ecA|BdB AdF|TF3E2E|
DED cBc|BGBA2G|FDg fge|d3D3:|

